X: 200
T: Dui Hua
L: 1/8
M: 2/4
K: G
g g/ e/d2 [I:setbarnb 1]| 
d d/ B/A2 | 
d> B d3/ E/ | 
B> A G D | 
B E B B/ B/ | 
E B A E | 
G D G E | 
D4 | 
g g/ e/d2 | 
d d/ B/A2 | 
d> B d3/ E/ | 
B> A G D | 
B E B B/ B/ | 
E B A G | 
G D G E | 
D4 | 
G EG2- | 
G AG2 | 
A2G E | 
G ED2 | 
B E B B/ B/ | 
E B A E | 
G D G E | 
D4 |]

@@@ Tune index: 9074
